X:85
T:Tailor's Twist, The
R:hornpipe
D:Paul McGrattan: The Frost is All Over
Z:id:hn-hornpipe-85
M:C|
K:D
FE | DAFD AFdA | Bged cbag | fedc Bged | cdBc AGFE |
DAFD AFdA | Bged ceag | fedc Bgec | d2dc d2 :|
|: zb | ~a3f deed | bagf eAce | ~g3A (3Bcd ef | g2fg egfe |
d2dc dAFA | Bged ceag | fedc Bgec | d2dc d2 :|
P:variations
FE | DA,FD AFdA | Bged ceag | fedc Bged | (3cdc (3BcB (3ABA (3GFE |
DA,FD AFdA | Bged cbag | fedc Bgec | d2dc d2 :|
|: fg | ~a3f defa | bagf eAce | gfge (3Bcd ef | (3gag (3fgf egfe |
dfec dAFA | Bged cbag | fedc Bgec | d2dc d2 :|
<end>
<start>
